packages/core/src/svgs/tokens/branded/POLS.svg

<svg width="24" height="24" viewBox="0 0 24 24" fill="none" xmlns="http://www.w3.org/2000/svg">
<path fill-rule="evenodd" clip-rule="evenodd" d="M6.51613 2H14.5729C18.6748 2 22 5.32193 22 9.41941C22 13.5167 18.6748 16.8387 14.5729 16.8387H11.6773V22H6.51613V19.3419C8.6529 18.7871 10.2322 16.8296 10.2322 14.5001C10.2322 12.1703 8.6529 10.2129 6.51613 9.65741V2ZM11.6773 5.87097H14.6762C16.5832 5.87097 18.1291 7.45935 18.1291 9.41941C18.1291 11.3794 16.5832 12.9677 14.6762 12.9677H11.6773V5.87097ZM5.22581 17.8065C6.08134 17.8065 6.90183 17.4665 7.50678 16.8617C8.11175 16.2567 8.4516 15.4362 8.4516 14.5806C8.4516 13.7251 8.11175 12.9047 7.50678 12.2996C6.90183 11.6946 6.08134 11.3549 5.22581 11.3549C4.37026 11.3549 3.54977 11.6946 2.94482 12.2996C2.33985 12.9047 2 13.7251 2 14.5806C2 15.4362 2.33985 16.2567 2.94482 16.8617C3.54977 17.4665 4.37026 17.8065 5.22581 17.8065Z" fill="#FF3364"/>
</svg>

<svg xmlns="http://www.w3.org/2000/svg" width="24" height="24" fill="none" viewBox="0 0 24 24">
    <path fill="#FF3364" fill-rule="evenodd" d="M6.516 2h8.057C18.675 2 22 5.322 22 9.42s-3.325 7.419-7.427 7.419h-2.896V22h-5.16v-2.658a4.994 4.994 0 0 0 3.715-4.842c0-2.33-1.58-4.287-3.716-4.843zm5.161 3.871h3c1.906 0 3.452 1.588 3.452 3.548s-1.546 3.549-3.453 3.549h-2.999zM5.226 17.807a3.226 3.226 0 1 0 0-6.453 3.226 3.226 0 0 0 0 6.453" clip-rule="evenodd"/>
</svg>
